BTC2018Banner.svg

<?xml version="1.0" encoding="UTF-8" standalone="no"?>
<!-- Created with Inkscape (http://www.inkscape.org/) -->

<svg
   xmlns:dc="http://purl.org/dc/elements/1.1/"
   xmlns:cc="http://creativecommons.org/ns#"
   xmlns:rdf="http://www.w3.org/1999/02/22-rdf-syntax-ns#"
   xmlns:svg="http://www.w3.org/2000/svg"
   xmlns="http://www.w3.org/2000/svg"
   xmlns:sodipodi="http://sodipodi.sourceforge.net/DTD/sodipodi-0.dtd"
   xmlns:inkscape="http://www.inkscape.org/namespaces/inkscape"
   width="1200"
   height="200"
   viewBox="0 0 1200 200"
   id="svg2"
   version="1.1"
   inkscape:version="0.91 r13725"
   sodipodi:docname="BTC2018Banner.svg">
  <defs
     id="defs4" />
  <sodipodi:namedview
     id="base"
     pagecolor="#ffffff"
     bordercolor="#666666"
     borderopacity="1.0"
     inkscape:pageopacity="0"
     inkscape:pageshadow="2"
     inkscape:zoom="1.4"
     inkscape:cx="492.93574"
     inkscape:cy="-10.911028"
     inkscape:document-units="px"
     inkscape:current-layer="layer1"
     showgrid="false"
     units="px"
     inkscape:window-width="2560"
     inkscape:window-height="1378"
     inkscape:window-x="-8"
     inkscape:window-y="-8"
     inkscape:window-maximized="1" />
  <metadata
     id="metadata7">
    <rdf:RDF>
      <cc:Work
         rdf:about="">
        <dc:format>image/svg+xml</dc:format>
        <dc:type
           rdf:resource="http://purl.org/dc/dcmitype/StillImage" />
        <dc:title />
      </cc:Work>
    </rdf:RDF>
  </metadata>
  <g
     inkscape:label="Layer 1"
     inkscape:groupmode="layer"
     id="layer1"
     transform="translate(0,-852.36216)">
    <path
       style="fill:#2ba039;fill-opacity:1;stroke:#000000;stroke-width:9.57588768;stroke-linecap:round;stroke-miterlimit:4;stroke-dasharray:none;stroke-opacity:1;paint-order:fill markers stroke"
       d="m 306.1981,109.29325 c -21.47343,8.0086 -246.835319,10.31643 -257.528457,21.78152 -53.3561101,12.76665 -105.0393,51.1981 -105.175781,70.16742 0.0024,38.2015 163.104118,54.16992 318.480748,54.16992 83.87174,-0.0212 163.33102,-9.24304 216.71094,-25.14844 13.75978,-0.7368 27.27467,-1.72468 40.43164,-2.95898 36.01227,13.6851 81.26899,21.18298 128.0039,21.20898 49.49312,-0.0362 97.22208,-8.45102 134.06055,-23.63672 31.12788,9.6227 69.54121,16.28953 111.18555,19.29883 32.79937,19.8755 93.95972,32.15874 160.24021,32.17774 101.9451,-10e-5 240.1475,-30.53885 240.1465,-65.71875 1.1689,-25.1507 -99.6136,-46.24814 -135.4238,-47.20704 -34.5819,-39.71496 -140.5383,-68.799082 -214.41408,-73.841792 -46.82009,0.01326 -92.57733,4.613606 -131.48829,13.216792 -37.6646,-24.546746 -98.93667,-39.158436 -164.30664,-39.181636 -27.28954,0.0458 5.07931,1.933954 -19.86272,6.891182 C 616.15482,55.29768 554.26168,37.843198 490.72601,39.144004 422.61648,40.538454 351.55399,62.739932 306.1981,109.29325 Z"
       transform="translate(0,852.36216)"
       id="path4485"
       inkscape:connector-curvature="0"
       sodipodi:nodetypes="ccccccccccccccccsc" />
    <text
       xml:space="preserve"
       style="font-style:normal;font-variant:normal;font-weight:normal;font-stretch:normal;font-size:76.66806793px;line-height:91.00000262%;font-family:'Arial Black';-inkscape-font-specification:'Arial Black, ';text-align:center;letter-spacing:0px;word-spacing:0px;text-anchor:middle;fill:#004800;fill-opacity:1;stroke:#000000;stroke-width:3.52;stroke-linecap:butt;stroke-linejoin:miter;stroke-miterlimit:4;stroke-dasharray:none;stroke-opacity:1"
       x="838.2298"
       y="942.22314"
       id="text4136"
       sodipodi:linespacing="91.000003%"><tspan
         sodipodi:role="line"
         id="tspan4138"
         x="838.2298"
         y="942.22314"
         style="font-style:normal;font-variant:normal;font-weight:normal;font-stretch:normal;line-height:91.00000262%;font-family:'Arial Black';-inkscape-font-specification:'Arial Black, ';text-align:center;text-anchor:middle;fill:#004800;fill-opacity:1;stroke:#000000;stroke-width:3.52;stroke-miterlimit:4;stroke-dasharray:none;stroke-opacity:1">Briones District</tspan><tspan
         sodipodi:role="line"
         x="838.2298"
         y="1011.9911"
         style="font-style:normal;font-variant:normal;font-weight:normal;font-stretch:normal;line-height:91.00000262%;font-family:'Arial Black';-inkscape-font-specification:'Arial Black, ';text-align:center;text-anchor:middle;fill:#004800;fill-opacity:1;stroke:#000000;stroke-width:3.52;stroke-miterlimit:4;stroke-dasharray:none;stroke-opacity:1"
         id="tspan4146">Troop Challenge</tspan></text>
    <text
       xml:space="preserve"
       style="font-style:normal;font-variant:normal;font-weight:normal;font-stretch:normal;font-size:139.45463562px;line-height:125%;font-family:'Airstrike Bold';-inkscape-font-specification:'Airstrike Bold, ';letter-spacing:0px;word-spacing:0px;fill:#860000;fill-opacity:1;stroke:#000000;stroke-width:3.51999998;stroke-linecap:butt;stroke-linejoin:miter;stroke-opacity:1;stroke-miterlimit:4;stroke-dasharray:none"
       x="-215.87289"
       y="767.12402"
       id="text4148"
       sodipodi:linespacing="125%"
       transform="matrix(0.76997392,0,0.23624237,1.2987453,0,0)"><tspan
         sodipodi:role="line"
         id="tspan4150"
         x="-215.87289"
         y="767.12402"
         style="font-style:normal;font-variant:normal;font-weight:normal;font-stretch:normal;font-family:Airstrike;-inkscape-font-specification:Airstrike;fill:#860000;fill-opacity:1;stroke:#000000;stroke-opacity:1;stroke-width:3.51999998;stroke-miterlimit:4;stroke-dasharray:none">BTC2018 </tspan></text>
  </g>
</svg>

<?xml version="1.0" encoding="UTF-8" standalone="no"?>
<!-- Created with Inkscape (http://www.inkscape.org/) -->

<svg
   xmlns:dc="http://purl.org/dc/elements/1.1/"
   xmlns:cc="http://creativecommons.org/ns#"
   xmlns:rdf="http://www.w3.org/1999/02/22-rdf-syntax-ns#"
   xmlns:svg="http://www.w3.org/2000/svg"
   xmlns="http://www.w3.org/2000/svg"
   xmlns:sodipodi="http://sodipodi.sourceforge.net/DTD/sodipodi-0.dtd"
   xmlns:inkscape="http://www.inkscape.org/namespaces/inkscape"
   width="1200"
   height="200"
   viewBox="0 0 1200 200"
   id="svg2"
   version="1.1"
   inkscape:version="0.91 r13725"
   sodipodi:docname="BTC2018Banner.svg">
  <defs
     id="defs4" />
  <sodipodi:namedview
     id="base"
     pagecolor="#ffffff"
     bordercolor="#666666"
     borderopacity="1.0"
     inkscape:pageopacity="0"
     inkscape:pageshadow="2"
     inkscape:zoom="1.4"
     inkscape:cx="492.93574"
     inkscape:cy="-10.911028"
     inkscape:document-units="px"
     inkscape:current-layer="layer1"
     showgrid="false"
     units="px"
     inkscape:window-width="2560"
     inkscape:window-height="1378"
     inkscape:window-x="-8"
     inkscape:window-y="-8"
     inkscape:window-maximized="1" />
  <metadata
     id="metadata7">
    <rdf:RDF>
      <cc:Work
         rdf:about="">
        <dc:format>image/svg+xml</dc:format>
        <dc:type
           rdf:resource="http://purl.org/dc/dcmitype/StillImage" />
        <dc:title />
      </cc:Work>
    </rdf:RDF>
  </metadata>
  <g
     inkscape:label="Layer 1"
     inkscape:groupmode="layer"
     id="layer1"
     transform="translate(0,-852.36216)">
    <path
       style="fill:#2ba039;fill-opacity:1;stroke:#000000;stroke-width:9.57588768;stroke-linecap:round;stroke-miterlimit:4;stroke-dasharray:none;stroke-opacity:1;paint-order:fill markers stroke"
       d="M 352.85742 26.640625 A 238.35999 78.002846 0 0 0 114.49805 104.64258 A 238.35999 78.002846 0 0 0 114.76953 107.15039 A 175.56441 77.350121 0 0 0 65.8125 136.78906 C 12.45639 149.55571 -19.2268 167.27287 -19.363281 186.24219 C -19.360881 224.44369 106.59798 255.41211 261.97461 255.41211 C 345.84635 255.39091 425.30563 246.16907 478.68555 230.26367 C 492.44533 229.52687 505.96022 228.53899 519.11719 227.30469 C 555.12946 240.98979 600.38618 248.48767 647.12109 248.51367 C 696.61421 248.47747 744.34317 240.06265 781.18164 224.87695 C 812.30952 234.49965 850.72285 241.16648 892.36719 244.17578 C 925.16656 264.05128 986.32691 276.33452 1052.6074 276.35352 C 1154.5525 276.35342 1292.7549 245.81467 1292.7539 210.63477 C 1293.9228 185.48407 1193.1403 164.38663 1157.3301 163.42773 C 1122.7482 123.71277 1016.7918 94.628648 942.91602 89.585938 C 896.09593 89.599198 850.33869 94.199544 811.42773 102.80273 C 773.76313 78.255984 712.49106 63.644294 647.12109 63.621094 C 619.83155 63.666892 592.91469 66.269334 567.97266 71.226562 A 238.35999 78.002846 0 0 0 520.26172 49.205078 C 507.93686 41.691508 488.19552 35.367118 446.60742 32.943359 A 238.35999 78.002846 0 0 0 352.85742 26.640625 z "
       transform="translate(0,852.36216)"
       id="path4485" />
    <text
       xml:space="preserve"
       style="font-style:normal;font-variant:normal;font-weight:normal;font-stretch:normal;font-size:76.66806793px;line-height:91.00000262%;font-family:'Arial Black';-inkscape-font-specification:'Arial Black, ';text-align:center;letter-spacing:0px;word-spacing:0px;text-anchor:middle;fill:#004800;fill-opacity:1;stroke:#000000;stroke-width:3.52;stroke-linecap:butt;stroke-linejoin:miter;stroke-miterlimit:4;stroke-dasharray:none;stroke-opacity:1"
       x="838.2298"
       y="942.22314"
       id="text4136"
       sodipodi:linespacing="91.000003%"><tspan
         sodipodi:role="line"
         id="tspan4138"
         x="838.2298"
         y="942.22314"
         style="font-style:normal;font-variant:normal;font-weight:normal;font-stretch:normal;line-height:91.00000262%;font-family:'Arial Black';-inkscape-font-specification:'Arial Black, ';text-align:center;text-anchor:middle;fill:#004800;fill-opacity:1;stroke:#000000;stroke-width:3.52;stroke-miterlimit:4;stroke-dasharray:none;stroke-opacity:1">Briones District</tspan><tspan
         sodipodi:role="line"
         x="838.2298"
         y="1011.9911"
         style="font-style:normal;font-variant:normal;font-weight:normal;font-stretch:normal;line-height:91.00000262%;font-family:'Arial Black';-inkscape-font-specification:'Arial Black, ';text-align:center;text-anchor:middle;fill:#004800;fill-opacity:1;stroke:#000000;stroke-width:3.52;stroke-miterlimit:4;stroke-dasharray:none;stroke-opacity:1"
         id="tspan4146">Troop Challenge</tspan></text>
    <text
       xml:space="preserve"
       style="font-style:normal;font-variant:normal;font-weight:normal;font-stretch:normal;font-size:139.45463562px;line-height:125%;font-family:'Airstrike Bold';-inkscape-font-specification:'Airstrike Bold, ';letter-spacing:0px;word-spacing:0px;fill:#860000;fill-opacity:1;stroke:#000000;stroke-width:3.51999998;stroke-linecap:butt;stroke-linejoin:miter;stroke-opacity:1;stroke-miterlimit:4;stroke-dasharray:none"
       x="-215.87289"
       y="767.12402"
       id="text4148"
       sodipodi:linespacing="125%"
       transform="matrix(0.76997392,0,0.23624237,1.2987453,0,0)"><tspan
         sodipodi:role="line"
         id="tspan4150"
         x="-215.87289"
         y="767.12402"
         style="font-style:normal;font-variant:normal;font-weight:normal;font-stretch:normal;font-family:Airstrike;-inkscape-font-specification:Airstrike;fill:#860000;fill-opacity:1;stroke:#000000;stroke-opacity:1;stroke-width:3.51999998;stroke-miterlimit:4;stroke-dasharray:none">BTC2018 </tspan></text>
  </g>
</svg>
